!!!COM: Mozart, Wolfgang Amadeus
!!!OTL: Musikalische Würfelspiele, Kontre-Tänze
!!!SCA: K<sup>6</sup> Anh. C30.01 (K<sup>3</sup> Anh. 294d)
**kern	**kern
*staff2	*staff2
*clefF4	*clefG2
*M2/4	*M2/4
*MM110	*MM110
*>[A,A1,A,A2,B]	*>[A,A1,A,A2,B]
*>norep[A,A2,B]	*>norep[A,A2,B]
*>A	*>A
=165	=165
4C	8cc
.	16ee
.	16cc
4r	8g
.	8g
=68	=68
4C	8gg
.	16gg
.	16ee
4r	8cc
.	16cc
.	16ee
=40	=40
8G	16ff
.	16ee
8GG	16dd
.	16cc
8GG	16b
.	16cc
8GG	16dd
.	16b
=37	=37
16C	8cc
16c	.
16B	8ee
16c	.
4C	4g
=147	=147
4D	16dd
.	16ee
.	16ff#
.	16gg
4F#	16aa
.	16ff#
.	16ee
.	16dd
=92	=92
4G	8gg
.	8dd
4r	8b
.	8g
=168	=168
4C	8ee
.	4cc
4D	.
.	16a
.	16f#
=102	=102
*>A1	*>A1
16BB	4g 4b 4gg
16GG	.
16BB	.
16D	.
16G	4r
16F	.
16E	.
16D	.
=102:|!	=102:|!
*>A2	*>A2
16BB	4g 4b 4gg
16GG	.
16BB	.
16D	.
16GG	4r
16AA	.
16BB	.
16C#	.
=155||	=155||
*>B	*>B
16D	4aa
16F#	.
16A	.
16F#	.
8D	16gg
.	16ff#
8C	16ee
.	16dd
=104	=104
4G	8gg
.	16ddd
.	16bb
4GG	4gg
=29	=29
4C	16ee
.	16cc
.	16g
.	16cc
4C	16ee
.	16cc
.	16gg
.	16ee
=141	=141
4G	8dd
.	8b
4GG	8g
.	8b
=128	=128
16C	8g
16G	.
16E	4cc
16G	.
16C	.
16G	.
16E	8ee
16G	.
=80	=80
4C	8cc
.	8ee
4r	8ee
.	8ee
=159	=159
4G	8dd
.	4ff
4GG	.
.	16dd
.	16b
=127	=127
4C	4cc
4CC	4c
==	==
*-	*-
